X:532361
F:http://www.vwml.org/record/HAM/5/32/36%%VWML:HAM-5-32-36-0
T:Bold Astrologer, The
S:Mrs Marina Russell, Upwey coll. HED Hammond
O:England
A:Dorset
N:Transcribed from HAM-05-091.gif
F:HAM-05-32-36.abc
Z:EFDSS;PJHeadford
M:C
L:1/8
Q:2/4=50
K:C
D2|D3E F2G2|Ad3 d3A|G3F D2D2|D6 D2|D3E F2G2|A2d4 c2|
B2B2 A2G2|A6 G2|A AA2 c3B|A AA2 c3B|A2A2 G2F2|E6 D2|
D3D F2G2|A2d2 d2D2|FF3 E3E|D6||x3x"< or ends&nbsp;:"xx|A2d2 d2c2|AA3 GFD2|D6|| W:Transcribed from HAM-05-091.gif The first note could be either D or E.
